src/sfx2/res/indexoff_small.svg

<svg viewBox="0 0 16 16" xmlns="http://www.w3.org/2000/svg"><path d="m3 2v1h1v2h-1v1h3v-1h-1v-2h1v-1zm5 0v1h6v-1zm0 2v1h4v-1zm-6 4v1h1v2h-1v1h3 2v-1h-1v-2h1v-1zm6 0v1h6v-1zm-4 1h1v2h-1zm4 1v1h2v-1zm3 0v1h1.875.125 1v-1h-1-.125z" fill="#b3b3b3"/></svg>

<?xml version="1.0" encoding="UTF-8" standalone="no"?>
<svg
   xmlns:dc="http://purl.org/dc/elements/1.1/"
   xmlns:cc="http://creativecommons.org/ns#"
   xmlns:rdf="http://www.w3.org/1999/02/22-rdf-syntax-ns#"
   xmlns:svg="http://www.w3.org/2000/svg"
   xmlns="http://www.w3.org/2000/svg"
   xmlns:sodipodi="http://sodipodi.sourceforge.net/DTD/sodipodi-0.dtd"
   xmlns:inkscape="http://www.inkscape.org/namespaces/inkscape"
   viewBox="0 0 16 16"
   version="1.1"
   id="svg4"
   sodipodi:docname="indexoff_small.svg"
   inkscape:version="0.92.4 (5da689c313, 2019-01-14)">
  <metadata
     id="metadata10">
    <rdf:RDF>
      <cc:Work
         rdf:about="">
        <dc:format>image/svg+xml</dc:format>
        <dc:type
           rdf:resource="http://purl.org/dc/dcmitype/StillImage" />
      </cc:Work>
    </rdf:RDF>
  </metadata>
  <defs
     id="defs8" />
  <sodipodi:namedview
     pagecolor="#ffffff"
     bordercolor="#666666"
     borderopacity="1"
     objecttolerance="10"
     gridtolerance="10"
     guidetolerance="10"
     inkscape:pageopacity="0"
     inkscape:pageshadow="2"
     inkscape:window-width="1920"
     inkscape:window-height="1011"
     id="namedview6"
     showgrid="true"
     inkscape:zoom="41.7193"
     inkscape:cx="5.8553238"
     inkscape:cy="9.3713638"
     inkscape:window-x="0"
     inkscape:window-y="32"
     inkscape:window-maximized="1"
     inkscape:current-layer="svg4">
    <inkscape:grid
       type="xygrid"
       id="grid817" />
  </sodipodi:namedview>
  <path
     d="M 3,2 V 3 H 4 V 5 H 3 V 6 H 6 V 5 H 5 V 3 H 6 V 2 Z m 5,0 v 1 h 6 V 2 Z m 0,2 v 1 h 6 V 4 Z M 2,8 v 1 h 1 v 2 H 2 v 1 H 5 7 V 11 H 6 V 9 H 7 V 8 Z m 6,0 v 1 h 6 V 8 Z M 4,9 h 1 v 2 H 4 Z m 4,1 v 1 h 6 v -1 z"
     id="path2"
     inkscape:connector-curvature="0"
     style="fill:#b3b3b3"
     sodipodi:nodetypes="cccccccccccccccccccccccccccccccccccccccccccccccccccc" />
</svg>
